X: 1832
T: Rita Baker Schottische No 1
B: australian traditional tunes wiki
M:4/4
L:1/8
R: Schottische
Q: 1/4=100
K:D
V:1 
AG|"D"F2F2G2"A"F>G|"D"BA3F2D>F|A>d cd"A"E3G|B2A>F "D"A,3D|
F2F2G2"A"F>G|"D"BA3F2D>F|A>d c>d"A"E2 (3BcB |A>B (3cBA "D"d2d>e||
f2e2d2c>d|e<dF4-F>B|"A"A2C2C3B|"D"A2D2D2d>e|
f2e2d2c>d|e<dF4F>B|"A"A2C2C2B,>C|"D"D4D4||
% abcbook-tune_id 6342d53af7404f98d1aa6aab


% abcbook-boost 0
% abcbook-tablature 
% abcbook-transpose 
% abcbook-lastupdated 1665324386701
% abcbook-soundfonts 
% abcbook-repeats 1
% NFF Book 2007

